packages/katcn/src/icons/svg/coins-solid.svg

<svg xmlns="http://www.w3.org/2000/svg" fill="none" viewBox="0 0 24 24"><path fill="#000" d="M12 20.8c-2.9 0-5.4-.9-7-2.4v.2c0 2.5 3.1 4.4 7 4.4s7-1.9 7-4.4v-.2c-1.6 1.5-4.1 2.4-7 2.4"/><path fill="#000" d="M18.5 14.3c-.2.2-.5.4-.8.5-.3.2-.6.3-1 .5-1.3.6-3 .9-4.7.9s-3.4-.3-4.7-.9c-.3-.1-.7-.3-1-.5s-.5-.3-.8-.5c-.2-.1-.3-.2-.5-.4v.9c0 .4.1.7.2 1s.3.6.5.8C6.9 18 9.2 19 12 19s5.1-1 6.3-2.4c.2-.3.4-.5.5-.8.2-.3.2-.7.2-1v-.2c0-.2 0-.4-.1-.7z"/><path fill="#000" d="M18 10c-.3.2-.6.4-.9.5-.3.2-.7.3-1.1.5-1.2.4-2.6.7-4.1.7s-2.8-.3-4-.7c-.4-.2-.7-.3-1.1-.5-.3-.1-.6-.3-.8-.5-.4-.2-.7-.4-.9-.7-.1.3-.1.5-.1.7s0 .4.1.7.2.6.4.9c.1.3.3.5.5.7.4.4.8.7 1.3 1 .4.2.7.4 1.2.5.6.2 1.3.4 2 .5.5.1 1 .1 1.5.1s1 0 1.5-.1c.7-.1 1.4-.3 2-.5.4-.1.8-.3 1.2-.5.5-.3.9-.6 1.3-1 .2-.2.4-.5.5-.7.2-.3.3-.6.4-.9s.1-.5.1-.7 0-.4-.1-.7c-.2.3-.5.5-.9.7"/><path fill="#000" d="M5.4 7c.2.2.4.5.6.7.5.5 1.1 1 1.9 1.3.5.2 1 .4 1.5.5.8.2 1.7.3 2.6.3s1.8-.1 2.6-.3c.5-.1 1.1-.3 1.5-.5.8-.3 1.4-.8 1.9-1.3.2-.2.4-.5.5-.7.2-.3.3-.6.4-.9.1-.2.1-.5.1-.7C19 2.9 15.9 1 12 1S5 2.9 5 5.4c0 .2 0 .5.1.7z"/></svg>

<svg width="24" height="24" viewBox="0 0 24 24" fill="none" xmlns="http://www.w3.org/2000/svg">
<path d="M12 20.8C9.1 20.8 6.6 19.9 5 18.4C5 18.5 5 18.5 5 18.6C5 21.1 8.1 23 12 23C15.9 23 19 21.1 19 18.6C19 18.5 19 18.5 19 18.4C17.4 19.9 14.9 20.8 12 20.8Z" fill="black"/>
<path d="M18.5 14.3C18.3 14.5 18 14.7 17.7 14.8C17.4 15 17.1 15.1 16.7 15.3C15.4 15.9 13.7 16.2 12 16.2C10.3 16.2 8.6 15.9 7.3 15.3C7 15.2 6.6 15 6.3 14.8C6 14.6 5.8 14.5 5.5 14.3C5.3 14.2 5.2 14.1 5 13.9C5 14.1 5 14.4 5 14.6C5 14.6 5 14.7 5 14.8C5 15.2 5.1 15.5 5.2 15.8C5.3 16.1 5.5 16.4 5.7 16.6C6.9 18 9.2 19 12 19C14.8 19 17.1 18 18.3 16.6C18.5 16.3 18.7 16.1 18.8 15.8C19 15.5 19 15.1 19 14.8C19 14.8 19 14.7 19 14.6C19 14.4 19 14.2 18.9 13.9C18.8 14 18.6 14.2 18.5 14.3Z" fill="black"/>
<path d="M18 10C17.7 10.2 17.4 10.4 17.1 10.5C16.8 10.7 16.4 10.8 16 11C14.8 11.4 13.4 11.7 11.9 11.7C10.4 11.7 9.1 11.4 7.9 11C7.5 10.8 7.2 10.7 6.8 10.5C6.5 10.4 6.2 10.2 6 10C5.6 9.8 5.3 9.6 5.1 9.3C5 9.6 5 9.8 5 10C5 10.2 5 10.4 5.1 10.7C5.2 11 5.3 11.3 5.5 11.6C5.6 11.9 5.8 12.1 6 12.3C6.4 12.7 6.8 13 7.3 13.3C7.7 13.5 8 13.7 8.5 13.8C9.1 14 9.8 14.2 10.5 14.3C11 14.4 11.5 14.4 12 14.4C12.5 14.4 13 14.4 13.5 14.3C14.2 14.2 14.9 14 15.5 13.8C15.9 13.7 16.3 13.5 16.7 13.3C17.2 13 17.6 12.7 18 12.3C18.2 12.1 18.4 11.8 18.5 11.6C18.7 11.3 18.8 11 18.9 10.7C19 10.4 19 10.2 19 10C19 9.8 19 9.6 18.9 9.3C18.7 9.6 18.4 9.8 18 10Z" fill="black"/>
<path d="M5.4 7C5.6 7.2 5.8 7.5 6 7.7C6.5 8.2 7.1 8.7 7.9 9C8.4 9.2 8.9 9.4 9.4 9.5C10.2 9.7 11.1 9.8 12 9.8C12.9 9.8 13.8 9.7 14.6 9.5C15.1 9.4 15.7 9.2 16.1 9C16.9 8.7 17.5 8.2 18 7.7C18.2 7.5 18.4 7.2 18.5 7C18.7 6.7 18.8 6.4 18.9 6.1C19 5.9 19 5.6 19 5.4C19 2.9 15.9 1 12 1C8.1 1 5 2.9 5 5.4C5 5.6 5 5.9 5.1 6.1C5.2 6.4 5.3 6.7 5.4 7Z" fill="black"/>
</svg>
